X: 10395
P: Copyright.
Q: "Reel."
M: C
L: 1/8
K: G
d |\
g2Bd ceAd | gdeg dbaf |\
g2dB cBce | dbaf g2g :|\
f/e/ |\
d2fa d2gb | afge dcBA |
d2fa d2gb | afge dcBA |\


